X:1
T:Title
%%score { ( 1 3 5 ) | ( 2 4 ) }
L:1/8
M:4/4
K:F
V:1 treble nm="Grand Piano"
V:3 treble 
V:5 treble 
V:2 bass 
V:4 bass 
V:1
 z4 z2[Q:1/4=116] c2 | c6 z2 | d6 z2 | C2 D2 E2 F2 | A6 z2 | G6 z2 | z2 E2 E2 e2 | e4 d4 | %8
 [Ec]6 C2 | c2 B2 G2 E2 | D2 ^C2 =C2 C2 | c2 B2 G2 E2 |[M:3/4] [Ec]6 |[M:1/4] C2 | %14
[M:4/4] C2 C2 z B[_A=B][=Ac] | [Af]2 [Ac]2 [GB]2 A2 | G6 z2 |[M:3/4] [Bd]6 |[M:1/4] B2 | %19
[M:4/4] [EG]4- [EG]^FG_A | [FA]2 [Ac]2 [GB]2 A2 | [DG]2 F2 [DE]2 F2 |[M:3/4] [FA]4 [EG]2 | %23
[M:1/4] C2 |[M:4/4] C2 C2 z B[_A=B][=Ac] | [Af]2 [Ac]2 [GB]2 A2 | G6 z2 |[M:3/4] [Bd]6 | %28
[M:1/4] [DAc]2 |[M:4/4] [_EAc]2 [DGB]2 [CDA]2 [B,DG]2 | [A,CF]2 [G,CE]2 [CEA]2 [B,EG]2 | E2 z2 z4 | %32
[M:3/4] F6 |] %33
V:2
 z8 | z2 [F,A,]2 [C,A,]2 z2 | z2 [F,A,]2 [C,A,]2 [F,A,]2 | [F,A,]2 [C,A,C]2 [F,A,C]2 [C,A,C]2 | %4
 C6 z2 | z2 [G,C]2 [C,C]2 z2 | z2 [G,C]2 [C,C]2[K:treble] [G,CG]2 | [G,CG]4 [G,=B,F]4 | %8
 [C,G,C]6 C,2 | C2 B,2 G,2 E,2 | D,2 ^C,2 =C,2 C,2 | C2 B,2 G,2 E,2 |[M:3/4] [C,G,]6 |[M:1/4] C,2 | %14
[M:4/4] F,2 C,2 z G [C,C]2 | [F,C]2 [C,C]2 [F,C]2 [F,CF]2 | [B,D]2 B,2 B,2 B,2 | %17
[M:3/4] G,2 D,2 G,2 |[M:1/4] G2 |[M:4/4] z4 C2 z2 | F,,C,F,A,[K:treble] C2 F2 | z2 D2 z2 D2 | %22
[M:3/4] C,C, F,A, C2 |[M:1/4] C,2 |[M:4/4] F,2 C,2 z G [C,C]2 | [F,C]2 [C,C]2 [F,C]2 [F,CF]2 | %26
 [B,D]2 B,2 B,2 B,2 |[M:3/4] G,2 D,2 G,2 |[M:1/4] D,2 |[M:4/4] G,2 G,2 G,2 G,2 | C,2 C,2 C,2 C,2 | %31
 z2 C2 z4 |[M:3/4] [F,A,]6 |] %33
V:3
 x8 | z2 F2 F2 d2 | z2 F2 F2 C2 | x8 | z2 A,2 A,2 A2 | z2 E2 E2 A2 | G6 z2 | x8 | x8 | x8 | x8 | %11
 x8 |[M:3/4] x6 |[M:1/4] x2 |[M:4/4] [FA]6 z2 | x8 | z2 D2 D2 [DGB]2 |[M:3/4] D2 D2 D2 | %18
[M:1/4] x2 |[M:4/4] x8 | x8 | x8 |[M:3/4] x6 |[M:1/4] x2 |[M:4/4] [FA]6 z2 | x8 | z2 D2 D2 [DGB]2 | %27
[M:3/4] D2 D2 D2 |[M:1/4] x2 |[M:4/4] x8 | x8 | [B,G]4- [B,-DG-]2 [B,EG]2 |[M:3/4] x6 |] %33
V:4
 x8 | x8 | x8 | x8 | [F,A,]2 C,2 F,2 z2 | x8 | x6[K:treble] x2 | x8 | x8 | x8 | x8 | x8 | %12
[M:3/4] x6 |[M:1/4] x2 |[M:4/4] z4 F,2 z2 | x8 | x8 |[M:3/4] x6 |[M:1/4] x2 | %19
[M:4/4] C,,C,E,G, z _E=EE | x4[K:treble] x4 | B,,4 =B,,4 |[M:3/4] x6 |[M:1/4] x2 | %24
[M:4/4] z4 F,2 z2 | x8 | x8 |[M:3/4] x6 |[M:1/4] x2 |[M:4/4] x8 | x8 | C,8 |[M:3/4] x6 |] %33
V:5
 x8 | x8 | x8 | x8 | x8 | x8 | x8 | x8 | x8 | x8 | x8 | x8 |[M:3/4] x6 |[M:1/4] x2 | %14
[M:4/4] z4 C2 z2 | x8 | x8 |[M:3/4] x6 |[M:1/4] x2 |[M:4/4] x8 | x8 | x8 |[M:3/4] x6 |[M:1/4] x2 | %24
[M:4/4] z4 C2 z2 | x8 | x8 |[M:3/4] x6 |[M:1/4] x2 |[M:4/4] x8 | x8 | x8 |[M:3/4] x6 |] %33

